app/images/icons/share1.svg

<svg fill="none" height="19" viewBox="0 0 16 19" width="16" xmlns="http://www.w3.org/2000/svg"><path d="m12.5 11.5c-.8086 0-1.5469.2812-2.1094.7383l-3.62107-2.25002c.03516-.17578.10547-.52734.10547-.73828 0-.17578-.07031-.52734-.10547-.70312l3.62107-2.25c.5625.45703 1.3008.70312 2.1094.70312 1.8633 0 3.375-1.47656 3.375-3.375 0-1.86328-1.5117-3.375-3.375-3.375-1.8984 0-3.375 1.51172-3.375 3.375 0 .28125 0 .52734.07031.73828l-3.62109 2.25c-.5625-.45703-1.30078-.73828-2.07422-.73828-1.89844 0-3.375 1.51172-3.375 3.375 0 1.8984 1.47656 3.375 3.375 3.375.77344 0 1.51172-.2461 2.07422-.7031l3.62109 2.25c-.03515.1758-.07031.5273-.07031.7031 0 1.8984 1.4766 3.375 3.375 3.375 1.8633 0 3.375-1.4766 3.375-3.375 0-1.8633-1.5117-3.375-3.375-3.375z" fill="#b3b3b3"/></svg>

<svg width="16" height="19" viewBox="0 0 16 19" fill="none" xmlns="http://www.w3.org/2000/svg">
<path d="M12.5 11.5C11.6914 11.5 10.9531 11.7812 10.3906 12.2383L6.76953 9.98828C6.80469 9.8125 6.875 9.46094 6.875 9.25C6.875 9.07422 6.80469 8.72266 6.76953 8.54688L10.3906 6.29688C10.9531 6.75391 11.6914 7 12.5 7C14.3633 7 15.875 5.52344 15.875 3.625C15.875 1.76172 14.3633 0.25 12.5 0.25C10.6016 0.25 9.125 1.76172 9.125 3.625C9.125 3.90625 9.125 4.15234 9.19531 4.36328L5.57422 6.61328C5.01172 6.15625 4.27344 5.875 3.5 5.875C1.60156 5.875 0.125 7.38672 0.125 9.25C0.125 11.1484 1.60156 12.625 3.5 12.625C4.27344 12.625 5.01172 12.3789 5.57422 11.9219L9.19531 14.1719C9.16016 14.3477 9.125 14.6992 9.125 14.875C9.125 16.7734 10.6016 18.25 12.5 18.25C14.3633 18.25 15.875 16.7734 15.875 14.875C15.875 13.0117 14.3633 11.5 12.5 11.5Z" fill="#B3B3B3"/>
</svg>
